!!!ONB: MCCC : IFC0059_04 : Extracted Monophonic Melody
!!!COM: Chopin, Frédéric
!!!OPR: Mazurkas
!!!OMV: 4
!!!SCT: Op.68 (Posthumous)
!!!ODT: 1826///
**kern
*thru
*staff1
*Ipiano
*>A
*clefG2
*k[]
*a:
*M3/4
*MM138
4ee[
=1
4.ee]
8ff
8ee
8dd#
=2
8ee
8b
4cc
4dd
=3
4.cc
8dd
8cc
8b
=4
8cc
8g#
4a
4b
=5
4.a
8b
8cc
8g#
=6
8a
8d#
4e
8g
8f
=7
8e
8d
4B
4c
=8
4A
4r
4e
=9
4ee[
8ee]
8aa
8gg
8ff
=10
8ee
8b
4cc
4dd
=11
4.cc
8ff
8ee
8dd
=12
8cc
8g#
4a
4b
=13
4.a
8b
8cc
8g#
=14
8b
8a
8d#
8e
8g
8f#
=15
8f
8e
8d#
8d
8B
8c
=16
4A
4r
4e
=17
*>B
4.f#
8g#
8a
8b
=18
12cc
12dd
12cc
4b
4ee
=19
4.b
8cc
8dd
8ee
=20
12ff
12gg
12ff
4ee
4aa
=21
4.aa
8gg
8gg
8ff
=22
8ff
8ee
8ee
8b
8b
8cc
=23
[4gg
8gg]
8ff
8ff
8ee
=24
8ee
8dd
8dd
8a
8cc
8b
=25
4.f#
8g#
8a
8b
=26
12cc
12dd
12cc
4b
4ee
=27
4.b
8cc
8dd
8ee
=28
12ff
12gg
12ff
4ee
4ccc[
=29
8ccc]
8bb
8bb-
8cc
8aa
8gg#
=30
8gg#
8gg
8ff#
8a
8ff
8ee
=31
8ee
8dd#
8dd
8e
8cc
8b
=32
*>B1
8b
8cc
2a
=33
*>B
4.f#
8g#
8a
8b
=34
12cc
12dd
12cc
4b
4ee
=35
4.b
8cc
8dd
8ee
=36
12ff
12gg
12ff
4ee
4aa
=37
4.aa
8gg
8gg
8ff
=38
8ff
8ee
8ee
8b
8b
8cc
=39
[4gg
8gg]
8ff
8ff
8ee
=40
8ee
8dd
8dd
8a
8cc
8b
=41
4.f#
8g#
8a
8b
=42
12cc
12dd
12cc
4b
4ee
=43
4.b
8cc
8dd
8ee
=44
12ff
12gg
12ff
4ee
4ccc[
=45
8ccc]
8bb
8bb-
8cc
8aa
8gg#
=46
8gg#
8gg
8ff#
8a
8ff
8ee
=47
8ee
8dd#
8dd
8e
8cc
8b
=48
*>B2
8b
8cc
4a
4r
=49
*>C
*k[f#c#g#]
2cc#
4dd
=50
8cc#
8a#
8b
8dd
8ff#
8ee
=51
2b
4cc#
=52
8b
8g#
8a
8b
8cc#
8e
=53
2ee
4ff#
=54
8ee
8cc##
8dd#
8ff#
8aa
8gg#
=55
2dd#
4ee
=56
8dd#
8cc#
8ff#
8ee
8dd#
8dd
=57
2cc#
4dd
=58
8cc#
8a#
8b
8dd
8gg#
8ff#
=59
2b
4cc#
=60
8b
8g#
8a
8b
8cc#
8e
=61
8f#
8g#
8a
8b
8cc#
8dd
=62
8dd#
8ff#
8ee
8gg#
8aa
16ccc#
16r
=63
8ff#
8ff#
8ee
8g#
8cc#
8e
=64
*>C1
8e
8a
2a
=65
*>C
2cc#
4dd
=66
8cc#
8a#
8b
8dd
8ff#
8ee
=67
2b
4cc#
=68
8b
8g#
8a
8b
8cc#
8e
=69
2ee
4ff#
=70
8ee
8cc##
8dd#
8ff#
8aa
8gg#
=71
2dd#
4ee
=72
8dd#
8cc#
8ff#
8ee
8dd#
8dd
=73
2cc#
4dd
=74
8cc#
8a#
8b
8dd
8gg#
8ff#
=75
2b
4cc#
=76
8b
8g#
8a
8b
8cc#
8e
=77
8f#
8g#
8a
8b
8cc#
8dd
=78
8dd#
8ff#
8ee
8gg#
8aa
16ccc#
16r
=79
8ff#
8ff#
8ee
8g#
8cc#
8e
=80
*>C2
8e
8a
4a
4ee
=81
*>D
*k[]
4.ee]
8ff
8ee
8dd#
=82
8ee
8b
4cc
4dd
=83
4.cc
8dd
8cc
8b
=84
8cc
8g#
4a
4b
=85
4.a
8b
8cc
8g#
=86
8a
8d#
4e
8g
8f
=87
8e
8d
4B
4c
=88
4A
4r
4e
=89
4ee[
8ee]
8aa
8gg
8ff
=90
8ee
8b
4cc
4dd
=91
4.cc
8ff
8ee
8dd
=92
8cc
8g#
4a
4b
=93
4.a
8b
8cc
8g#
=94
8b
8a
8d#
8e
8g
8f#
=95
8f
8e
8d#
8d
8B
8c
=96
4A
4r
4e
=97
4.f#
8g#
8a
8b
=98
12cc
12dd
12cc
4b
4ee
=99
4.b
8cc
8dd
8ee
=100
12ff
12gg
12ff
4ee
4aa
=101
4.aa
8gg
8gg
8ff
=102
8ff
8ee
8ee
8b
8b
8cc
=103
4gg[
8gg]
8ff
8ff
8ee
=104
8ee
8dd
8dd
8a
8cc
8b
=105
4.f#
8g#
8a
8b
=106
12cc
12dd
12cc
4b
4ee
=107
4.b
8cc
8dd
8ee
=108
12ff
12gg
12ff
4ee
4ccc[
=109
8ccc]
8bb
8bb-
8cc
8aa
8gg#
=110
8gg#
8gg
8ff#
8a
8ff
8ee
=111
8ee
8dd#
8dd
8e
8cc
8b
=112
8b
8cc
4a
4r
==
*-
